svgs/OMSLogAnalytics.svg

<?xml version="1.0" encoding="UTF-8" standalone="no"?>
<!-- Generated by Microsoft Visio, SVG Export Log Analytics.svg Page-1 -->

<svg
   xmlns:v="http://schemas.microsoft.com/visio/2003/SVGExtensions/"
   xmlns:dc="http://purl.org/dc/elements/1.1/"
   xmlns:cc="http://creativecommons.org/ns#"
   xmlns:rdf="http://www.w3.org/1999/02/22-rdf-syntax-ns#"
   xmlns:svg="http://www.w3.org/2000/svg"
   xmlns="http://www.w3.org/2000/svg"
   xmlns:sodipodi="http://sodipodi.sourceforge.net/DTD/sodipodi-0.dtd"
   xmlns:inkscape="http://www.inkscape.org/namespaces/inkscape"
   width="0.51881915in"
   height="0.51868027in"
   viewBox="0 0 37.355 37.345001"
   xml:space="preserve"
   class="st2"
   version="1.1"
   id="svg21"
   sodipodi:docname="OMSLogAnalytics.svg"
   style="font-size:12px;overflow:visible;color-interpolation-filters:sRGB;fill:none;fill-rule:evenodd;stroke-linecap:square;stroke-miterlimit:3"
   inkscape:version="0.92.4 (5da689c313, 2019-01-14)"><metadata
   id="metadata27"><rdf:RDF><cc:Work
       rdf:about=""><dc:format>image/svg+xml</dc:format><dc:type
         rdf:resource="http://purl.org/dc/dcmitype/StillImage" /></cc:Work></rdf:RDF></metadata><defs
   id="defs25" /><sodipodi:namedview
   pagecolor="#ffffff"
   bordercolor="#666666"
   borderopacity="1"
   objecttolerance="10"
   gridtolerance="10"
   guidetolerance="10"
   inkscape:pageopacity="0"
   inkscape:pageshadow="2"
   inkscape:window-width="713"
   inkscape:window-height="543"
   id="namedview23"
   showgrid="false"
   inkscape:zoom="4.5559871"
   inkscape:cx="24.899986"
   inkscape:cy="24.899988"
   inkscape:window-x="0"
   inkscape:window-y="0"
   inkscape:window-maximized="0"
   inkscape:current-layer="svg21" />
	<v:documentProperties
   v:langID="1033"
   v:viewMarkup="false">
		<v:userDefs>
			<v:ud
   v:nameU="visTLShowProps"
   v:prompt=""
   v:val="VT0(0):26" />
		</v:userDefs>
	</v:documentProperties>

	<style
   type="text/css"
   id="style2">
	<![CDATA[
		.st1 {fill:#0078d7;stroke:none;stroke-linecap:butt;stroke-width:0.75}
		.st2 {fill:none;fill-rule:evenodd;font-size:12px;overflow:visible;stroke-linecap:square;stroke-miterlimit:3}
	]]>
	</style>

	<g
   v:mID="0"
   v:index="1"
   v:groupContext="foregroundPage"
   id="g19"
   transform="translate(-0.75,-0.755)">
		<title
   id="title4">Page-1</title>
		<v:pageProperties
   v:drawingScale="1"
   v:pageScale="1"
   v:drawingUnits="19"
   v:shadowOffsetX="2.83465"
   v:shadowOffsetY="-2.83465"
   v:shadowType="1" />
		<g
   id="group1475-1"
   transform="translate(0.75,-0.75)"
   v:mID="1475"
   v:groupContext="group">
			<title
   id="title6">Sheet.1475</title>
			<g
   id="shape1476-2"
   v:mID="1476"
   v:groupContext="shape">
				<title
   id="title8">Sheet.1476</title>
				<path
   d="M 9.68,29.18 V 16.54 C 4.17,17.27 0,21.97 0,27.68 c 0,6.21 4.96,11.17 11.18,11.17 5.7,0 10.4,-4.17 11.13,-9.67 z m -6,-4.5 h 3 v 3 h -3 z m 6,12 h -3 v -3 h 3 z m 9,-3 h -3 v -3 h 3 z"
   class="st1"
   id="path10"
   inkscape:connector-curvature="0"
   style="fill:#0078d7;stroke:none;stroke-width:0.75;stroke-linecap:butt" />
			</g>
			<g
   id="shape1477-4"
   v:mID="1477"
   v:groupContext="shape"
   transform="translate(11.175,-11.175)">
				<title
   id="title13">Sheet.1477</title>
				<path
   d="M 13.13,12.68 C 5.78,12.68 0,18.38 0,25.73 v 13.12 c 0,0 9.75,0 13.13,0 7.34,0 13.05,-5.78 13.05,-13.12 0,-7.35 -5.71,-13.05 -13.05,-13.05 z M 8.25,32.48 H 5.63 v -8.63 h 2.62 z m 5.63,0 h -2.63 v -6 h 2.63 z m 5.62,0 H 16.88 V 20.85 h 2.62 z"
   class="st1"
   id="path15"
   inkscape:connector-curvature="0"
   style="fill:#0078d7;stroke:none;stroke-width:0.75;stroke-linecap:butt" />
			</g>
		</g>
	</g>
</svg>

<?xml version="1.0" encoding="UTF-8" standalone="no"?>
<!DOCTYPE svg PUBLIC "-//W3C//DTD SVG 1.1//EN" "http://www.w3.org/Graphics/SVG/1.1/DTD/svg11.dtd">
<!-- Generated by Microsoft Visio, SVG Export Log Analytics.svg Page-1 -->
<svg xmlns="http://www.w3.org/2000/svg" xmlns:xlink="http://www.w3.org/1999/xlink" xmlns:ev="http://www.w3.org/2001/xml-events"
		xmlns:v="http://schemas.microsoft.com/visio/2003/SVGExtensions/" width="0.539583in" height="0.539583in"
		viewBox="0 0 38.85 38.85" xml:space="preserve" color-interpolation-filters="sRGB" class="st2">
	<v:documentProperties v:langID="1033" v:viewMarkup="false">
		<v:userDefs>
			<v:ud v:nameU="visTLShowProps" v:prompt="" v:val="VT0(0):26"/>
		</v:userDefs>
	</v:documentProperties>

	<style type="text/css">
	<![CDATA[
		.st1 {fill:#0078d7;stroke:none;stroke-linecap:butt;stroke-width:0.75}
		.st2 {fill:none;fill-rule:evenodd;font-size:12px;overflow:visible;stroke-linecap:square;stroke-miterlimit:3}
	]]>
	</style>

	<g v:mID="0" v:index="1" v:groupContext="foregroundPage">
		<title>Page-1</title>
		<v:pageProperties v:drawingScale="1" v:pageScale="1" v:drawingUnits="19" v:shadowOffsetX="2.83465"
				v:shadowOffsetY="-2.83465" v:shadowType="1"/>
		<g id="group1475-1" transform="translate(0.75,-0.75)" v:mID="1475" v:groupContext="group">
			<title>Sheet.1475</title>
			<g id="shape1476-2" v:mID="1476" v:groupContext="shape">
				<title>Sheet.1476</title>
				<path d="M9.68 29.18 L9.68 16.54 C4.17 17.27 0 21.97 0 27.68 C0 33.89 4.96 38.85 11.18 38.85 C16.88 38.85 21.58 34.68
							 22.31 29.18 L9.68 29.18 ZM3.68 24.68 L6.68 24.68 L6.68 27.68 L3.68 27.68 L3.68 24.68 ZM9.68 36.68 L6.68
							 36.68 L6.68 33.68 L9.68 33.68 L9.68 36.68 ZM18.68 33.68 L15.68 33.68 L15.68 30.68 L18.68 30.68 L18.68
							 33.68 Z" class="st1"/>
			</g>
			<g id="shape1477-4" v:mID="1477" v:groupContext="shape" transform="translate(11.175,-11.175)">
				<title>Sheet.1477</title>
				<path d="M13.13 12.68 C5.78 12.68 0 18.38 0 25.73 L0 38.85 C0 38.85 9.75 38.85 13.13 38.85 C20.47 38.85 26.18 33.07
							 26.18 25.73 C26.18 18.38 20.47 12.68 13.13 12.68 ZM8.25 32.48 L5.63 32.48 L5.63 23.85 L8.25 23.85 L8.25
							 32.48 ZM13.88 32.48 L11.25 32.48 L11.25 26.48 L13.88 26.48 L13.88 32.48 ZM19.5 32.48 L16.88 32.48 L16.88
							 20.85 L19.5 20.85 L19.5 32.48 Z" class="st1"/>
			</g>
		</g>
	</g>
</svg>
